X: 100333
T: THE PENICUICK HORNPIPE
C: Composed by R. Baillie, Penicuick
R: hornpipe
B: K\"ohler's Violin Repository, v.3, 1885 p.234 #2
F: http://www.archive.org/details/klersviolinrepos03rugg
Z: 2012 John Chambers <jc:trillian.mit.edu>
M: C|
L: 1/8
K: G
ud2 |\
g2{a}gf (gd)Bg | ecAF GBDG | (FG)AB (ce)dc | Bdag fadf |
(ga)gf (gd)Bg | ecAF GBDG | (FG)AB (cF)BA | G2{A}GF G2 :|
|: z2 |\
va2{b}ag (fd)fa | b2ba (gB)ef | gagf ed^ce | d2{e}d^c d2d2- |
dcBd gBed | cBAc EAce | (ag)fe (df)af | g2b2 g2 :|

%%sep 2 1 500

